packages/modal/assets/next.svg

<svg width="22" height="23" viewBox="0 0 22 23" fill="none" xmlns="http://www.w3.org/2000/svg">
<path d="M11 22.0059C16.8008 22.0059 21.5469 17.2598 21.5469 11.459C21.5469 5.64844 16.8008 0.902344 10.9902 0.902344C5.18945 0.902344 0.443359 5.64844 0.443359 11.459C0.443359 17.2598 5.18945 22.0059 11 22.0059ZM11 18.8223C6.91797 18.8223 3.62695 15.5312 3.62695 11.459C3.62695 7.37695 6.91797 4.08594 10.9902 4.08594C15.0723 4.08594 18.3633 7.37695 18.3633 11.459C18.3633 15.5312 15.0723 18.8223 11 18.8223ZM8.91992 16.1953C9.30078 16.5762 10.1016 16.5664 10.5117 16.1758L14.1738 12.748C14.8965 12.0742 14.8965 10.873 14.1738 10.1992L10.5117 6.78125C10.0527 6.35156 9.37891 6.36133 8.95898 6.75195C8.48047 7.18164 8.48047 7.93359 8.92969 8.36328L12.2695 11.4688L8.92969 14.584C8.49023 15.0039 8.45117 15.7266 8.91992 16.1953Z" fill="#3C4252" fill-opacity="0.6"/>
</svg>

<svg width="22" height="23" fill="none" xmlns="http://www.w3.org/2000/svg"><path d="M11 22.006c5.8 0 10.547-4.746 10.547-10.547C21.547 5.649 16.8.902 10.99.902 5.19.902.443 5.648.443 11.46c0 5.8 4.746 10.547 10.557 10.547Zm0-3.184a7.358 7.358 0 0 1-7.373-7.363 7.358 7.358 0 0 1 7.363-7.373 7.36 7.36 0 0 1 7.373 7.373A7.356 7.356 0 0 1 11 18.822Zm-2.08-2.627c.38.381 1.182.371 1.592-.02l3.662-3.427c.723-.674.723-1.875 0-2.549l-3.662-3.418c-.46-.43-1.133-.42-1.553-.029a1.107 1.107 0 0 0-.03 1.611l3.34 3.106-3.34 3.115a1.123 1.123 0 0 0-.01 1.611Z" fill="#3C4252" fill-opacity=".6"/></svg>
